Newaita/actions/32/distribute-horizontal-center.svg

<svg height="32" viewBox="0 0 32 32" width="32" xmlns="http://www.w3.org/2000/svg"><g fill="#424242"><path d="m6.613281 2.894531h1.324219c.367188 0 .664062.296875.664062.664063v6.613281c0 .367187-.296874.664063-.664062.664063h-1.324219c-.363281 0-.660156-.296876-.660156-.664063v-6.613281c0-.367188.296875-.664063.660156-.664063zm0 0"/><path d="m3.96875 9.511719c-.734375 0-1.324219.589843-1.324219 1.324219v6.613281c0 .734375.589844 1.324219 1.324219 1.324219h6.617188c.730468 0 1.320312-.589844 1.320312-1.324219v-6.613281c0-.734376-.589844-1.324219-1.320312-1.324219zm1.984375 2.644531h2.648437c.363282 0 .660157.296875.660157.664062v2.644532c0 .367187-.296875.660156-.660157.660156h-2.648437c-.367187 0-.660156-.292969-.660156-.660156v-2.644532c0-.367187.292969-.664062.660156-.664062zm0 0"/><path d="m6.613281 17.449219h1.324219c.367188 0 .664062.296875.664062.660156v10.585937c0 .367188-.296874.660157-.664062.660157h-1.324219c-.363281 0-.660156-.292969-.660156-.660157v-10.585937c0-.363281.296875-.660156.660156-.660156zm0 0"/><path d="m23.816406 2.894531h1.320313c.367187 0 .664062.296875.664062.664063v6.613281c0 .367187-.296875.664063-.664062.664063h-1.320313c-.367187 0-.664062-.296876-.664062-.664063v-6.613281c0-.367188.296875-.664063.664062-.664063zm0 0"/><path d="m21.167969 9.511719c-.730469 0-1.324219.589843-1.324219 1.324219v11.246093c0 .730469.59375 1.320313 1.324219 1.320313h6.617187c.730469 0 1.320313-.589844 1.320313-1.320313v-11.246093c0-.734376-.589844-1.324219-1.320313-1.324219zm1.984375 2.644531h2.648437c.363281 0 .660157.296875.660157.664062v7.273438c0 .367188-.296876.664062-.660157.664062h-2.648437c-.367188 0-.660156-.296874-.660156-.664062v-7.273438c0-.367187.292968-.664062.660156-.664062zm0 0"/><path d="m23.816406 22.082031h1.320313c.367187 0 .664062.292969.664062.660157v5.953124c0 .367188-.296875.660157-.664062.660157h-1.320313c-.367187 0-.664062-.292969-.664062-.660157v-5.953124c0-.367188.296875-.660157.664062-.660157zm0 0"/><path d="m14.554688 2.894531v5.292969l-3.308594-2.644531zm0 0"/><path d="m17.199219 2.894531v5.292969l3.308593-2.644531zm0 0"/></g></svg>

<svg xmlns="http://www.w3.org/2000/svg" xmlns:xlink="http://www.w3.org/1999/xlink" width="32px" height="32px" viewBox="0 0 32 32" version="1.1">
<g id="surface1">
     <defs>
  <style id="current-color-scheme" type="text/css">
   .ColorScheme-Text { color:#424242; } .ColorScheme-Highlight { color:#eeeeee; }
  </style>
 </defs>
<path style="fill:currentColor" class="ColorScheme-Text" d="M 6.613281 2.894531 L 7.9375 2.894531 C 8.304688 2.894531 8.601562 3.191406 8.601562 3.558594 L 8.601562 10.171875 C 8.601562 10.539062 8.304688 10.835938 7.9375 10.835938 L 6.613281 10.835938 C 6.25 10.835938 5.953125 10.539062 5.953125 10.171875 L 5.953125 3.558594 C 5.953125 3.191406 6.25 2.894531 6.613281 2.894531 Z M 6.613281 2.894531 "/>
     <defs>
  <style id="current-color-scheme" type="text/css">
   .ColorScheme-Text { color:#424242; } .ColorScheme-Highlight { color:#eeeeee; }
  </style>
 </defs>
<path style="fill:currentColor" class="ColorScheme-Text" d="M 3.96875 9.511719 C 3.234375 9.511719 2.644531 10.101562 2.644531 10.835938 L 2.644531 17.449219 C 2.644531 18.183594 3.234375 18.773438 3.96875 18.773438 L 10.585938 18.773438 C 11.316406 18.773438 11.90625 18.183594 11.90625 17.449219 L 11.90625 10.835938 C 11.90625 10.101562 11.316406 9.511719 10.585938 9.511719 Z M 5.953125 12.15625 L 8.601562 12.15625 C 8.964844 12.15625 9.261719 12.453125 9.261719 12.820312 L 9.261719 15.464844 C 9.261719 15.832031 8.964844 16.125 8.601562 16.125 L 5.953125 16.125 C 5.585938 16.125 5.292969 15.832031 5.292969 15.464844 L 5.292969 12.820312 C 5.292969 12.453125 5.585938 12.15625 5.953125 12.15625 Z M 5.953125 12.15625 "/>
     <defs>
  <style id="current-color-scheme" type="text/css">
   .ColorScheme-Text { color:#424242; } .ColorScheme-Highlight { color:#eeeeee; }
  </style>
 </defs>
<path style="fill:currentColor" class="ColorScheme-Text" d="M 6.613281 17.449219 L 7.9375 17.449219 C 8.304688 17.449219 8.601562 17.746094 8.601562 18.109375 L 8.601562 28.695312 C 8.601562 29.0625 8.304688 29.355469 7.9375 29.355469 L 6.613281 29.355469 C 6.25 29.355469 5.953125 29.0625 5.953125 28.695312 L 5.953125 18.109375 C 5.953125 17.746094 6.25 17.449219 6.613281 17.449219 Z M 6.613281 17.449219 "/>
     <defs>
  <style id="current-color-scheme" type="text/css">
   .ColorScheme-Text { color:#424242; } .ColorScheme-Highlight { color:#eeeeee; }
  </style>
 </defs>
<path style="fill:currentColor" class="ColorScheme-Text" d="M 23.816406 2.894531 L 25.136719 2.894531 C 25.503906 2.894531 25.800781 3.191406 25.800781 3.558594 L 25.800781 10.171875 C 25.800781 10.539062 25.503906 10.835938 25.136719 10.835938 L 23.816406 10.835938 C 23.449219 10.835938 23.152344 10.539062 23.152344 10.171875 L 23.152344 3.558594 C 23.152344 3.191406 23.449219 2.894531 23.816406 2.894531 Z M 23.816406 2.894531 "/>
     <defs>
  <style id="current-color-scheme" type="text/css">
   .ColorScheme-Text { color:#424242; } .ColorScheme-Highlight { color:#eeeeee; }
  </style>
 </defs>
<path style="fill:currentColor" class="ColorScheme-Text" d="M 21.167969 9.511719 C 20.4375 9.511719 19.84375 10.101562 19.84375 10.835938 L 19.84375 22.082031 C 19.84375 22.8125 20.4375 23.402344 21.167969 23.402344 L 27.785156 23.402344 C 28.515625 23.402344 29.105469 22.8125 29.105469 22.082031 L 29.105469 10.835938 C 29.105469 10.101562 28.515625 9.511719 27.785156 9.511719 Z M 23.152344 12.15625 L 25.800781 12.15625 C 26.164062 12.15625 26.460938 12.453125 26.460938 12.820312 L 26.460938 20.09375 C 26.460938 20.460938 26.164062 20.757812 25.800781 20.757812 L 23.152344 20.757812 C 22.785156 20.757812 22.492188 20.460938 22.492188 20.09375 L 22.492188 12.820312 C 22.492188 12.453125 22.785156 12.15625 23.152344 12.15625 Z M 23.152344 12.15625 "/>
     <defs>
  <style id="current-color-scheme" type="text/css">
   .ColorScheme-Text { color:#424242; } .ColorScheme-Highlight { color:#eeeeee; }
  </style>
 </defs>
<path style="fill:currentColor" class="ColorScheme-Text" d="M 23.816406 22.082031 L 25.136719 22.082031 C 25.503906 22.082031 25.800781 22.375 25.800781 22.742188 L 25.800781 28.695312 C 25.800781 29.0625 25.503906 29.355469 25.136719 29.355469 L 23.816406 29.355469 C 23.449219 29.355469 23.152344 29.0625 23.152344 28.695312 L 23.152344 22.742188 C 23.152344 22.375 23.449219 22.082031 23.816406 22.082031 Z M 23.816406 22.082031 "/>
     <defs>
  <style id="current-color-scheme" type="text/css">
   .ColorScheme-Text { color:#424242; } .ColorScheme-Highlight { color:#eeeeee; }
  </style>
 </defs>
<path style="fill:currentColor" class="ColorScheme-Text" d="M 14.554688 2.894531 L 14.554688 8.1875 L 11.246094 5.542969 Z M 14.554688 2.894531 "/>
     <defs>
  <style id="current-color-scheme" type="text/css">
   .ColorScheme-Text { color:#424242; } .ColorScheme-Highlight { color:#eeeeee; }
  </style>
 </defs>
<path style="fill:currentColor" class="ColorScheme-Text" d="M 17.199219 2.894531 L 17.199219 8.1875 L 20.507812 5.542969 Z M 17.199219 2.894531 "/>
</g>
</svg>
